X: 67
T: Aldım Hayal-i
C: Kömürcüzâde Hâfız Mehmed Ef.
O: Turkey
F: http://compmusic.upf.edu/node/140
N: huzzam--beste--remel--aldim_hayal-i--komurcuzade_hafiz_mehmet_efendi
N: makam= huzzam
N: form= beste
N: usul= remel = 28/2
M: 28/2
L: 1/16
K: C _1/4B _3/4e ^3/4f 
Q: 1/4=30
%%MIDI tuningsystem comma53
d2_7/8e4ed d2cB^f2ed c2d6 edcdc2B2  | \
w:   | 
z2d2_7/8e2^f2 e2d4c2 d2c4cB B8  | 
w:   | 
z2B6 c2d2c2d2 z2^f2_7/8e2d2 d2cBc2d2  | \
w:   | 
d3^f_7/8e2d2 d2^cBc2d2 c4d4 d8  | 
w:   | 
z2d6 _7/8e2^f2e2f2 f2g4gf gfede2f2  | \
w:   | 
_7/8e2^f6 gfefe2d2 z2e4d2 e2d2g2g2  | 
w:   | 
_bag^ff_7/8eed d4z2c2 d3ef2ed d6c2  | \
w:   | 
d3cB2c2 B2c2B2c2 d2cB^f2_7/8ed d8  | 
w:   | 
z4d2_7/8e2 d2e2d2e2 ^f2g2a2gf f3efeed  | \
w:   | 
d4d2g2 g6g2 g2^fga2gf f2_7/8efg2fe  | 
w:   | 
_7/8e2d4c2 d4edcd c2d4c2 d3ag2=f_1/4e  | \
w:   | 
_1/4e3dd3c dcB^AB4 z4B2c2 d2_7/8e2g3^f  | 
w:   | 
^f3_7/8ee3d d2cBf2ed z2c4cB BAAGf2ed  | 
w:   | 
d2c4B2 B8 c4d4 d6z2  | d2_7/8e4ed d2cB^f2ed c2d6 edcdc2B2  | 
w:   |   | 
z2d2_7/8e2^f2 e2d4c2 d2c4cB B8  | \
w:   | 
z2B6 c2d2c2d2 z2^f2_7/8e2d2 d2cBc2d2  | 
w:   | 
d3^f_7/8e2d2 d2^cBc2d2 c4d4 d8  | \
w:   | 
z2d6 _7/8e2^f2e2f2 f2g4gf gfede2f2  | 
w:   | 
_7/8e2^f6 gfefe2d2 z2e4d2 e2d2g2g2  | \
w:   | 
_bag^ff_7/8eed d4z2c2 d3ef2ed d6c2  | 
w:   | 
d3cB2c2 B2c2B2c2 d2cB^f2_7/8ed d8  | \
w:   | 
z4d2_7/8e2 d2e2d2e2 ^f2g2a2gf f3efeed  | 
w:   | 
d4d2g2 g6g2 g2^fga2gf f2_7/8efg2fe  | \
w:   | 
_7/8e2d4c2 d4edcd c2d4c2 d3ag2=f_1/4e  | 
w:   | 
_1/4e3dd3c dcB^AB4 z4B2c2 d2_7/8e2g3^f  | \
w:   | 
^f3_7/8ee3d d2cBf2ed z2c4cB BAAGf2ed  | 
w:   | 
d3cdccB B8 G3ABcAc B8  | d4c4 B4B4 B4z4 z4z4  | 
w:   |   | 
z2G4A2 B6A2 c3Bc2BA A6G2  | G2B2c2d2 c2B4A2 A2B4AG G8  | 
w:   |   | 
z4G2A2 B2c2d2=e2 g2=f2e2d2 edcBc4  | \
w:   | 
c2BcB2cd c2d4cB B4B4 B8  | 
w:   | 
z2B6 c2d2c2d2 z2d4g2 =f2=e2d2a2  | \
w:   | 
g2=f2=e2d2 dedededc c2c4cB B6BA  | 
w:   | 
A2B4AG G4z2G2 c6cB B2c2B2A2  | B3AG2A2 ^F2G2F2G2 ^A2B2cdcB B8  | 
w:   |   | 
z4B2c2 d3cB2c2 d2_7/8e^fe2d2 d2^cBc2d2  | \
w:   | 
c4d2g2 g6g2 g2^fga2gf f2_7/8efg2fe  | 
w:   | 
_7/8e2d4c2 d4edcd c2d4c2 d3ag2=f_1/4e  | \
w:   | 
_1/4e3dd3c dcB^AB4 z4B2c2 d2_7/8e2g3^f  | 
w:   | 
^f3_7/8ee3d d2cBf2ed z2c4cB BAAGf2ed  | 
w:   | 
d3cdccB B8 G3ABcAB B8  | d2_7/8e4ed d2cB^f2ed c2d6 edcdc2B2  | 
w:   |   | 
z2d2_7/8e2^f2 e2d4c2 d2c4cB B8  | \
w:   | 
z2B6 c2d2c2d2 z2^f2_7/8e2d2 d2cBc2d2  | 
w:   | 
d3^f_7/8e2d2 d2^cBc2d2 c4d4 d8  | \
w:   | 
z2d6 _7/8e2^f2e2f2 f2g4gf gfede2f2  | 
w:   | 
_7/8e2^f6 gfefe2d2 z2e4d2 e2d2g2g2  | \
w:   | 
_bag^ff_7/8eed d4z2c2 d3ef2ed d6c2  | 
w:   | 
d3cB2c2 B2c2B2c2 d2cB^f2_7/8ed d8  | \
w:   | 
z4d2_7/8e2 d2e2d2e2 ^f2g2a2gf f3efeed  | 
w:   | 
d4d2g2 g6g2 g2^fga2gf f2_7/8efg2fe  | \
w:   | 
_7/8e2d4c2 d4edcd c2d4c2 d3ag2=f_1/4e  | 
w:   | 
_1/4e3dd3c dcB^AB4 z4B2c2 d2_7/8e2g3^f  | \
w:   | 
^f3_7/8ee3d d2cBf2ed z2c4cB BAAGf2ed  | 
w:   | 
d2c4B2 B8 c4d4 d6z2  | d2_7/8e4ed d2cB^f2ed c2d6 edcdc2B2  | 
w:   |   | 
z2d2_7/8e2^f2 e2d4c2 d2c4cB B8  | \
w:   | 
z2B6 c2d2c2d2 z2^f2_7/8e2d2 d2cBc2d2  | 
w:   | 
d3^f_7/8e2d2 d2^cBc2d2 c4d4 d8  | \
w:   | 
z2d6 _7/8e2^f2e2f2 f2g4gf gfede2f2  | 
w:   | 
_7/8e2^f6 gfefe2d2 z2e4d2 e2d2g2g2  | \
w:   | 
_bag^ff_7/8eed d4z2c2 d3ef2ed d6c2  | 
w:   | 
d3cB2c2 B2c2B2c2 d2cB^f2_7/8ed d8  | \
w:   | 
z4d2_7/8e2 d2e2d2e2 ^f2g2a2gf f3efeed  | 
w:   | 
d4d2g2 g6g2 g2^fga2gf f2_7/8efg2fe  | \
w:   | 
_7/8e2d4c2 d4edcd c2d4c2 d3ag2=f_1/4e  | 
w:   | 
_1/4e3dd3c dcB^AB4 z4B2c2 d2_7/8e2g3^f  | \
w:   | 
^f3_7/8ee3d d2cBf2ed z2c4cB BAAGf2ed  | 
w:   | 
d3cdccB B8 G3ABcAc B8  | d4c4 B4B4 B4z4 z4z4  | 
w:   |   | 
|


